X: 628
T: Action Junkie Extraordinaire
R: reel
M: 4/4
K: Amixolydian
"A7"c3E AAEG|"Em7"GEGA BA"A7"~A2|B/c/d ed cAGE|"Em7"DEGE BAed|
"A7"c3E AAEG|"Em7"GEGA BA"A7"~A2|B/c/d ed cAGE|"Em7"DEGE A2z2:|
"Em7"B3d e2ge|~g3d egag|"Gmaj7"b3a aged|b4 aged|
"Em7"B3d e2ge|~g3d egag|"Gmaj7"b3a aged|ed B/c/d "A"e2z2|
"Cmaj7"B2dB dege|~g3d egag|"DaddG"ab2a- aged|abd'b aged|
"Cmaj7"B2dB dege|~g3d egag|"DaddG"b3a- aged|ed B/c/d "A"e2z2||

